X:0289
T:The Merry Girls of York.
T:For the Violin.
M:6/8
L:1/8
Q:3/8=120
I: :: ::
Z:Jack Campin * www.campin.me.uk * 2009
K:Bb
B|FDE F2B | FDE F2B   |cec  BdB|cAF F2B |
  FDE F2B | FDE F2f/e/|dcB  FGA|B3  B,2:|
f|fdB fg_a|_a3  g2g   |g=ec gab|b3  a3  |
  fbf dfd | ege cfc   |dcB  FGA|B3  B,2:|
<end>
<start>
